Suru++-Ubuntu/apps/scalable/angry-birds.svg

<svg width="256" height="256" version="1.1" viewBox="0 0 256 256" xmlns="http://www.w3.org/2000/svg" xmlns:xlink="http://www.w3.org/1999/xlink">
 <defs>
  <linearGradient id="linearGradient1108" x1="296" x2="296" y1="-212" y2="236" gradientUnits="userSpaceOnUse">
   <stop style="stop-color:#ffffff" offset="0"/>
   <stop style="stop-color:#ffffff;stop-opacity:.09803922" offset=".125"/>
   <stop style="stop-color:#000000;stop-opacity:.09803922" offset=".925"/>
   <stop style="stop-color:#000000;stop-opacity:.49803922" offset="1"/>
  </linearGradient>
  <clipPath id="clipPath1082-3-361">
   <path d="M 361.9375,-212 C 507.2348,-212 528,-191.28677 528,-46.125 V 70.125 C 528,215.28618 507.2348,236 361.9375,236 H 214.0625 C 68.7652,236 48,215.28618 48,70.125 V -46.125 C 48,-191.28677 68.7652,-212 214.0625,-212 Z" style="fill:#8c59d9"/>
  </clipPath>
  <filter id="filter4569" x="-.01" y="-.01" width="1.023" height="1.025" style="color-interpolation-filters:sRGB">
   <feGaussianBlur stdDeviation="1.16"/>
  </filter>
  <filter id="filter939" x="-.02" y="-.03" width="1.046" height="1.05" style="color-interpolation-filters:sRGB">
   <feGaussianBlur stdDeviation="2.32"/>
  </filter>
 </defs>
 <path transform="matrix(1.019368,0,0,1.019368,-7.2181772e-8,8.3098661)" d="m162.53675 5.5680001c72.64865 0 83.03125 10.356615 83.03125 82.937505v58.125005c0 72.58059-10.3826 82.9375-83.03125 82.9375h-73.937496c-72.648654 0-83.031254-10.35691-83.031254-82.9375v-58.125005c0-72.58089 10.3826-82.937505 83.031254-82.937505z" style="filter:url(#filter939);opacity:.2"/>
 <path d="m165.68477 11.946967c74.05571 0 84.6394 10.557203 84.6394 84.543835v59.250778c0 73.98633-10.58369 84.54383-84.6394 84.54383h-75.369521c-74.055717 0-84.639408-10.5575-84.639408-84.54383v-59.250778c0-73.986632 10.583691-84.543835 84.639408-84.543835z" style="fill:none;opacity:.1;stroke-linecap:round;stroke-linejoin:round;stroke-width:4.0774717;stroke:#000000"/>
 <path transform="matrix(1.019368,0,0,1.019368,-7.2181772e-8,8.3098661)" d="m162.53675 3.5680001c72.64865 0 83.03125 10.356615 83.03125 82.937505v58.125005c0 72.58059-10.3826 82.9375-83.03125 82.9375h-73.937496c-72.648654 0-83.031254-10.35691-83.031254-82.9375v-58.125005c0-72.58089 10.3826-82.937505 83.031254-82.937505z" style="filter:url(#filter4569);opacity:.1"/>
 <path d="m165.68476 11.946967c74.05571 0 84.6394 10.557203 84.6394 84.543835v59.250778c0 73.98633-10.58369 84.54383-84.6394 84.54383h-75.369522c-74.055712 0-84.639403-10.5575-84.639403-84.54383v-59.250778c0-73.986632 10.583691-84.543835 84.639403-84.543835z" style="fill:#bc2219"/>
 <g transform="translate(-.6596034 -1.346584)">
  <path transform="translate(.6596034 1.346584)" d="m250.32422 96.490234c0-9.248329-0.16557-17.505574-0.59961-24.875-0.21702-3.684712-0.50097-7.146679-0.86523-10.40039-0.36427-3.253712-0.80837-6.297958-1.34571-9.146485-0.53733-2.848527-1.16806-5.501544-1.90429-7.970703-0.73624-2.469159-1.57812-4.755486-2.53907-6.871094-0.96095-2.115607-2.04046-4.059783-3.25195-5.847656-1.21149-1.787872-2.55511-3.418343-4.04297-4.904297-1.03932-1.037986-2.24481-1.918948-3.42969-2.820312l-206.52343 206.52343c1.612527 1.04055 3.298808 2.01843 5.167968 2.86524 2.11807 0.95957 4.406996 1.80005 6.878907 2.53515 2.471911 0.73511 5.126939 1.3659 7.978515 1.90235 2.49879 0.47008 5.21451 0.84159 8.023438 1.17773 0.056632-0.01356 1.122512-0.3666 1.134765-0.36523 3.25706 0.36361 6.72373 0.64669 10.41211 0.86328 7.37676 0.43319 15.641477 0.59766 24.898437 0.59766h75.369144c9.25696 0 17.52167-0.16447 24.89843-0.59766 3.68838-0.21659 7.15505-0.49967 10.41211-0.86328 3.25707-0.36362 6.30468-0.8073 9.15625-1.34375 2.85158-0.53645 5.50661-1.16723 7.97852-1.90234 2.47191-0.7351 4.76084-1.57559 6.87891-2.53516s4.06541-2.03819 5.85546-3.24805c1.79006-1.20986 3.4223-2.55115 4.91016-4.03711s2.83148-3.11642 4.04297-4.90429c1.21149-1.78788 2.291-3.73205 3.25195-5.84766s1.80284-4.40194 2.53907-6.87109c0.73623-2.46916 1.36696-5.12218 1.90429-7.97071 0.53734-2.84852 0.98145-5.89278 1.34571-9.14648 0.36427-3.25371 0.65016-6.71569 0.86718-10.40039 0.43404-7.36941 0.59766-15.62671 0.59766-24.875v-58.720706z" style="fill:#ffffff;opacity:.05"/>
  <g transform="translate(3.1026489)">
   <path transform="translate(-2.4430455,1.346584)" d="m66.175781 239.70508c7.204326 0.40419 15.164175 0.58008 24.138672 0.58008h75.371097c9.25696 0 17.52167-0.16447 24.89843-0.59766 1.04959-0.06163 1.94898-0.1733 2.9629-0.24609-14.93441-17.00297-41.59863-31.82032-65.54688-31.82032-24.07189 0-47.125627 15.01583-61.824219 32.08399z" style="fill:#eeb17d"/>
   <g transform="matrix(.51325621 0 0 .51325621 -5.8366376 5.6147806)">
    <circle cx="343" cy="250.4" r="58.4" style="fill:#ffffff"/>
    <path d="m343 250.4c-19 19-53.4 15.4-34.4 34.4s49.9 19 68.9 0 19-49.9 0-68.9-15.5 15.5-34.5 34.5z" style="fill:#010101"/>
    <circle cx="169" cy="250.4" r="58.4" style="fill:#ffffff"/>
    <path d="m134.6 216c-19 19-19 49.9 0 68.9s49.9 19 68.9 0-15.5-15.5-34.5-34.5-15.4-53.4-34.4-34.4z" style="fill:#010101"/>
    <path d="m184.5 336.7c-12.4 7 29.7 51.9 70.6 51.9 42.3 0 85.3-44.3 73.9-51.9-38.3-25.4-56.6-20.3-74-20.7-16.9-0.4-39.2 3.1-70.5 20.7z" style="fill:#ce5b27"/>
    <path d="m183.7 344c-26 9.3 24.5-65.4 72.4-65.4 49.4 0 94.2 70.9 74.6 65.4-47-13.3-54.3 31.9-74.7 32.4-19.8 0.6-32.1-46.8-72.3-32.4z" style="fill:#fbad18"/>
    <path d="m238.8 243.6c-35.8-10.5-124.1-42.5-137.5-75.7-4.3-10.7 22.6-52.5 30.5-43.2 32.9 38.1 118.3 98.2 118.3 98.2s-4.5 22.7-11.3 20.7z" style="fill:#010101"/>
    <path d="m273.2 243.6c35.8-10.5 124.1-42.5 137.5-75.7 4.3-10.7-22.6-52.5-30.5-43.2-32.9 38.1-118.3 98.2-118.3 98.2s4.5 22.7 11.3 20.7z" style="fill:#010101"/>
   </g>
   <g transform="matrix(.51325621 0 0 .51325621 -5.8366376 5.6147806)">
    <path d="m256.2 149.5c-16.5-27.1-54.9-69.7-54.9-69.7 1.7-18 14.9-24.3 14.9-24.3s39.6 58.1 49.1 82.1c1.5 4.1-7 15.3-9.1 11.9z" style="fill:#010101"/>
    <path d="m260.1 161.1c-22.7-12.9-69.5-24.5-69.5-24.5-3.7-17.3 6.1-31.9 6.1-31.9s52.4 24.8 67.9 39.6c2.6 2.4-1.7 18.3-4.5 16.8z" style="fill:#010101"/>
    <path d="m254.1 148.5c-8.2-34.9-32.4-97.2-32.4-97.2 6.3-15.6 20-13.3 20-13.3s21.2 77.4 23.8 105.1c0.4 4.6-10.4 9.8-11.4 5.4z" style="fill:#010101"/>
   </g>
  </g>
 </g>
 <path transform="matrix(.50968403 0 0 .50968403 -18.788999 120)" d="M 361.9375,-212 C 507.2348,-212 528,-191.28677 528,-46.125 V 70.125 C 528,215.28618 507.2348,236 361.9375,236 H 214.0625 C 68.7652,236 48,215.28618 48,70.125 V -46.125 C 48,-191.28677 68.7652,-212 214.0625,-212 Z" clip-path="url(#clipPath1082-3-361)" style="fill:none;opacity:.4;stroke-linecap:round;stroke-linejoin:round;stroke-width:8;stroke:url(#linearGradient1108)"/>
</svg>

<svg xmlns="http://www.w3.org/2000/svg" xmlns:xlink="http://www.w3.org/1999/xlink" width="256" height="256" version="1.1" viewBox="0 0 256 256">
 <defs>
  <linearGradient id="linearGradient1108" x1="296" x2="296" y1="-212" y2="236" gradientUnits="userSpaceOnUse" xlink:href="#linearGradient1013"/>
  <linearGradient id="linearGradient1013">
   <stop style="stop-color:#ffffff" offset="0"/>
   <stop offset=".125" style="stop-color:#ffffff;stop-opacity:0.09803922"/>
   <stop offset=".925" style="stop-color:#000000;stop-opacity:0.09803922"/>
   <stop style="stop-color:#000000;stop-opacity:0.49803922" offset="1"/>
  </linearGradient>
  <clipPath id="clipPath1082-3-361" clipPathUnits="userSpaceOnUse">
   <path style="fill:#8c59d9" d="M 361.9375,-212 C 507.2348,-212 528,-191.28677 528,-46.125 V 70.125 C 528,215.28618 507.2348,236 361.9375,236 H 214.0625 C 68.7652,236 48,215.28618 48,70.125 V -46.125 C 48,-191.28677 68.7652,-212 214.0625,-212 Z"/>
  </clipPath>
  <filter id="filter4569" width="1.023" height="1.025" x="-.01" y="-.01" style="color-interpolation-filters:sRGB">
   <feGaussianBlur stdDeviation="1.16"/>
  </filter>
  <filter id="filter939" width="1.046" height="1.05" x="-.02" y="-.03" style="color-interpolation-filters:sRGB">
   <feGaussianBlur stdDeviation="2.32"/>
  </filter>
 </defs>
 <path d="m 162.53675,5.5680001 c 72.64865,0 83.03125,10.3566149 83.03125,82.9375049 v 58.125005 c 0,72.58059 -10.3826,82.9375 -83.03125,82.9375 H 88.599254 C 15.9506,229.56801 5.568,219.2111 5.568,146.63051 V 88.505505 c 0,-72.58089 10.3826,-82.9375049 83.031254,-82.9375049 z" transform="matrix(1.019368,0,0,1.019368,-7.2181772e-8,8.3098661)" style="opacity:0.2;filter:url(#filter939)"/>
 <path style="opacity:0.1;fill:none;stroke:#000000;stroke-width:4.07747173;stroke-linecap:round;stroke-linejoin:round" d="m 165.68477,11.946967 c 74.05571,0 84.6394,10.557203 84.6394,84.543835 v 59.250778 c 0,73.98633 -10.58369,84.54383 -84.6394,84.54383 H 90.315249 c -74.055717,0 -84.6394076,-10.5575 -84.6394076,-84.54383 V 96.490802 c 0,-73.986632 10.5836906,-84.543835 84.6394076,-84.543835 z"/>
 <path style="opacity:0.1;filter:url(#filter4569)" d="m 162.53675,3.5680001 c 72.64865,0 83.03125,10.3566149 83.03125,82.9375049 v 58.125005 c 0,72.58059 -10.3826,82.9375 -83.03125,82.9375 H 88.599254 C 15.9506,227.56801 5.568,217.2111 5.568,144.63051 V 86.505505 c 0,-72.58089 10.3826,-82.9375049 83.031254,-82.9375049 z" transform="matrix(1.019368,0,0,1.019368,-7.2181772e-8,8.3098661)"/>
 <path d="m 165.68476,11.946967 c 74.05571,0 84.6394,10.557203 84.6394,84.543835 v 59.250778 c 0,73.98633 -10.58369,84.54383 -84.6394,84.54383 H 90.315238 c -74.055712,0 -84.6394026,-10.5575 -84.6394026,-84.54383 V 96.490802 c 0,-73.986632 10.5836906,-84.543835 84.6394026,-84.543835 z" style="fill:#bc2219"/>
 <g transform="translate(-0.6596034,-1.346584)">
  <path d="M 250.32422 96.490234 C 250.32422 87.241905 250.15865 78.98466 249.72461 71.615234 C 249.50759 67.930522 249.22364 64.468555 248.85938 61.214844 C 248.49511 57.961132 248.05101 54.916886 247.51367 52.068359 C 246.97634 49.219832 246.34561 46.566815 245.60938 44.097656 C 244.87314 41.628497 244.03126 39.34217 243.07031 37.226562 C 242.10936 35.110955 241.02985 33.166779 239.81836 31.378906 C 238.60687 29.591034 237.26325 27.960563 235.77539 26.474609 C 234.73607 25.436623 233.53058 24.555661 232.3457 23.654297 L 25.822266 230.17773 C 27.434793 231.21828 29.121074 232.19616 30.990234 233.04297 C 33.108304 234.00254 35.39723 234.84302 37.869141 235.57812 C 40.341052 236.31323 42.99608 236.94402 45.847656 237.48047 C 48.346446 237.95055 51.062166 238.32206 53.871094 238.6582 C 53.927726 238.64464 54.993606 238.2916 55.005859 238.29297 C 58.262919 238.65658 61.729589 238.93966 65.417969 239.15625 C 72.794729 239.58944 81.059446 239.75391 90.316406 239.75391 L 165.68555 239.75391 C 174.94251 239.75391 183.20722 239.58944 190.58398 239.15625 C 194.27236 238.93966 197.73903 238.65658 200.99609 238.29297 C 204.25316 237.92935 207.30077 237.48567 210.15234 236.94922 C 213.00392 236.41277 215.65895 235.78199 218.13086 235.04688 C 220.60277 234.31178 222.8917 233.47129 225.00977 232.51172 C 227.12784 231.55215 229.07518 230.47353 230.86523 229.26367 C 232.65529 228.05381 234.28753 226.71252 235.77539 225.22656 C 237.26325 223.7406 238.60687 222.11014 239.81836 220.32227 C 241.02985 218.53439 242.10936 216.59022 243.07031 214.47461 C 244.03126 212.359 244.87315 210.07267 245.60938 207.60352 C 246.34561 205.13436 246.97634 202.48134 247.51367 199.63281 C 248.05101 196.78429 248.49512 193.74003 248.85938 190.48633 C 249.22365 187.23262 249.50954 183.77064 249.72656 180.08594 C 250.1606 172.71653 250.32422 164.45923 250.32422 155.21094 L 250.32422 96.490234 z" transform="translate(0.6596034,1.346584)" style="opacity:0.05;fill:#ffffff"/>
  <g transform="translate(3.1026489)">
   <path d="M 66.175781 239.70508 C 73.380107 240.10927 81.339956 240.28516 90.314453 240.28516 L 165.68555 240.28516 C 174.94251 240.28516 183.20722 240.12069 190.58398 239.6875 C 191.63357 239.62587 192.53296 239.5142 193.54688 239.44141 C 178.61247 222.43844 151.94825 207.62109 128 207.62109 C 103.92811 207.62109 80.874373 222.63692 66.175781 239.70508 z" transform="translate(-2.4430455,1.346584)" style="fill:#eeb17d"/>
   <g transform="matrix(0.51325621,0,0,0.51325621,-5.8366376,5.6147806)">
    <g>
     <g>
      <circle cx="343" cy="250.4" r="58.4" style="fill:#ffffff"/>
      <path d="m 343,250.4 c -19,19 -53.4,15.4 -34.4,34.4 19,19 49.9,19 68.9,0 19,-19 19,-49.9 0,-68.9 -19,-19 -15.5,15.5 -34.5,34.5 z" style="fill:#010101"/>
     </g>
     <g>
      <circle cx="169" cy="250.4" r="58.4" style="fill:#ffffff"/>
      <path d="m 134.6,216 c -19,19 -19,49.9 0,68.9 19,19 49.9,19 68.9,0 19,-19 -15.5,-15.5 -34.5,-34.5 -19,-19 -15.4,-53.4 -34.4,-34.4 z" style="fill:#010101"/>
     </g>
    </g>
    <g>
     <path d="m 184.5,336.7 c -12.4,7 29.7,51.9 70.6,51.9 42.3,0 85.3,-44.3 73.9,-51.9 -38.3,-25.4 -56.6,-20.3 -74,-20.7 -16.9,-0.4 -39.2,3.1 -70.5,20.7 z" style="fill:#ce5b27"/>
     <path d="m 183.7,344 c -26,9.3 24.5,-65.4 72.4,-65.4 49.4,0 94.2,70.9 74.6,65.4 -47,-13.3 -54.3,31.9 -74.7,32.4 -19.8,0.6 -32.1,-46.8 -72.3,-32.4 z" style="fill:#fbad18"/>
    </g>
    <g>
     <path d="M 238.8,243.6 C 203,233.1 114.7,201.1 101.3,167.9 c -4.3,-10.7 22.6,-52.5 30.5,-43.2 32.9,38.1 118.3,98.2 118.3,98.2 0,0 -4.5,22.7 -11.3,20.7 z" style="fill:#010101"/>
     <path d="m 273.2,243.6 c 35.8,-10.5 124.1,-42.5 137.5,-75.7 4.3,-10.7 -22.6,-52.5 -30.5,-43.2 -32.9,38.1 -118.3,98.2 -118.3,98.2 0,0 4.5,22.7 11.3,20.7 z" style="fill:#010101"/>
    </g>
   </g>
   <g transform="matrix(0.51325621,0,0,0.51325621,-5.8366376,5.6147806)">
    <path d="m 256.2,149.5 c -16.5,-27.1 -54.9,-69.7 -54.9,-69.7 1.7,-18 14.9,-24.3 14.9,-24.3 0,0 39.6,58.1 49.1,82.1 1.5,4.1 -7,15.3 -9.1,11.9 z" style="fill:#010101"/>
    <path d="m 260.1,161.1 c -22.7,-12.9 -69.5,-24.5 -69.5,-24.5 -3.7,-17.3 6.1,-31.9 6.1,-31.9 0,0 52.4,24.8 67.9,39.6 2.6,2.4 -1.7,18.3 -4.5,16.8 z" style="fill:#010101"/>
    <path d="m 254.1,148.5 c -8.2,-34.9 -32.4,-97.2 -32.4,-97.2 6.3,-15.6 20,-13.3 20,-13.3 0,0 21.2,77.4 23.8,105.1 0.4,4.6 -10.4,9.8 -11.4,5.4 z" style="fill:#010101"/>
   </g>
  </g>
 </g>
 <path style="opacity:0.4;fill:none;stroke:url(#linearGradient1108);stroke-width:8;stroke-linecap:round;stroke-linejoin:round" d="M 361.9375,-212 C 507.2348,-212 528,-191.28677 528,-46.125 V 70.125 C 528,215.28618 507.2348,236 361.9375,236 H 214.0625 C 68.7652,236 48,215.28618 48,70.125 V -46.125 C 48,-191.28677 68.7652,-212 214.0625,-212 Z" clip-path="url(#clipPath1082-3-361)" transform="matrix(0.50968403,0,0,0.50968403,-18.788999,120)"/>
</svg>
